communes/5712.svg

<?xml version="1.0" encoding="UTF-8"?>
<svg version="1.0" viewBox="0 0 603 763" xmlns="http://www.w3.org/2000/svg" xmlns:cc="http://creativecommons.org/ns#" xmlns:dc="http://purl.org/dc/elements/1.1/" xmlns:rdf="http://www.w3.org/1999/02/22-rdf-syntax-ns#" xmlns:xlink="http://www.w3.org/1999/xlink">
<metadata>
<rdf:RDF>
<cc:Work rdf:about="">
<dc:format>image/svg+xml</dc:format>
<dc:type rdf:resource="http://purl.org/dc/dcmitype/StillImage"/>
<dc:date>07-AUG-2006</dc:date>
<dc:creator>
<cc:Agent>
<dc:title>Jérôme BLUM (wagner51)</dc:title>
</cc:Agent>
</dc:creator>
<cc:license rdf:resource="http://creativecommons.org/licenses/GPL/2.0/"/>
<dc:coverage/>
<dc:description>Gabarit pour le Projet:Blasons de WIkipédia</dc:description>
<dc:subject>
<rdf:Bag>
<rdf:li>blason suisse modèle gabarit projet blasons</rdf:li>
</rdf:Bag>
</dc:subject>
<dc:language>fr</dc:language>
<dc:title>Gabrit d'un blason suisse</dc:title>
</cc:Work>
<cc:License rdf:about="http://creativecommons.org/licenses/GPL/2.0/">
<cc:permits rdf:resource="http://web.resource.org/cc/Reproduction"/>
<cc:permits rdf:resource="http://web.resource.org/cc/Distribution"/>
<cc:requires rdf:resource="http://web.resource.org/cc/Notice"/>
<cc:permits rdf:resource="http://web.resource.org/cc/DerivativeWorks"/>
<cc:requires rdf:resource="http://web.resource.org/cc/ShareAlike"/>
<cc:requires rdf:resource="http://web.resource.org/cc/SourceCode"/>
</cc:License>
</rdf:RDF>
</metadata>
<defs>
<radialGradient id="a" cx="858.04" cy="579.93" r="300" gradientTransform="matrix(1.215 1.5316e-24 1.4647e-23 1.2667 -839.19 -490.49)" gradientUnits="userSpaceOnUse">
<stop stop-color="#fff" stop-opacity=".31373" offset="0"/>
<stop stop-color="#fff" stop-opacity=".25098" offset=".19"/>
<stop stop-color="#6b6b6b" stop-opacity=".12549" offset=".6"/>
<stop stop-opacity=".12549" offset="1"/>
</radialGradient>
</defs>
<desc>Coat of Arms of Canton of Freiburg (Fribourg)</desc>
<g>
<path d="m1.5 1.5v458.87c0 166.31 134.31 301.13 300 301.13s300-134.82 300-301.13v-458.87h-600z" fill="#2b5df2"/>
<g fill="#fff" stroke="#000" stroke-linecap="round" stroke-linejoin="round" stroke-width="3">
<path d="m513.68 176.4c-0.191-1.57-2.187-4.571-4.571-4.571h-11.128v-15.367h5.25c2.601 0 3.712-2.138 3.15-3.149-7.419-13.352-18.058-20.1-22.536-22.488-1.328-0.708-2.688-1.033-4.277-1.033h-356.14c-1.589 0-2.95 0.325-4.277 1.033-4.478 2.389-15.117 9.137-22.536 22.488-0.562 1.012 0.549 3.149 3.15 3.149h5.25v15.367h-11.128c-2.384 0-4.38 3.001-4.571 4.571-0.354 2.903-0.55 5.967-0.55 9.206 0 42.391 82.802 147.71 212.73 147.71s212.73-105.32 212.73-147.71c0-3.238-0.196-6.302-0.551-9.206z"/>
<rect x="105.02" y="156.46" width="392.96" height="15.367"/>
<path d="m389.26 314.36c-8.742 0-21.206 3.182-24.674 9.373l-6e-3 5e-3c-3.297-5.721-8.284-9.377-13.876-9.377-6.038 0-11.375 4.254-14.639 10.774-2.399-4.969-5.971-8.125-9.963-8.125-3.994 0-7.566 3.156-9.966 8.125-3.261-6.52-8.6-10.775-14.637-10.775s-11.375 4.254-14.637 10.774c-2.4-4.969-5.972-8.125-9.965-8.125-3.992 0-7.564 3.156-9.964 8.125-3.262-6.52-8.6-10.774-14.637-10.774-5.595 0-10.583 3.658-13.882 9.383l-7e-3 -0.013c-3.468-6.19-15.926-9.37-24.668-9.37-8.98 0 16.42 30.469 48.084 41.487 10.741 3.737 24.189 4.083 39.676 4.083 15.486 0 28.934-0.346 39.677-4.083 31.664-11.018 57.063-41.487 48.084-41.487z"/>
<path d="m338.4 424.21c-5.046-16.838-19.661-29.012-36.906-29.012-17.247 0-31.866 12.179-36.91 29.022v25.266h73.816v-25.276z"/>
<ellipse transform="translate(-.038 -.045)" cx="281.16" cy="441.23" rx="5.917" ry="13.16"/>
<ellipse transform="translate(-.038 -.045)" cx="321.92" cy="441.23" rx="5.917" ry="13.16"/>
<path d="m261.73 423.72c-1.428 4.222-2.202 8.746-2.202 13.45 0 23.179 18.79 41.968 41.968 41.968 23.179 0 41.968-18.789 41.968-41.968 0-4.704-0.774-9.229-2.202-13.452-4.894 0-15.675 6.167-19.384 17.472-3.709-11.305-18.686-17.469-20.382-17.469s-16.673 6.164-20.382 17.469c-3.709-11.305-14.49-17.47-19.384-17.47z"/>
<path d="m301.5 439.78c-5.282 0-9.564 4.281-9.564 9.563s4.282 9.563 9.564 9.563 9.563-4.281 9.563-9.563-4.281-9.563-9.563-9.563zm40.172 0c-5.281 0-9.563 4.281-9.563 9.563 0 3.927 2.368 7.295 5.751 8.769 3.126-5.412 5.076-11.584 5.507-18.174-0.551-0.099-1.115-0.158-1.695-0.158zm-80.338 0c-0.581 0-1.147 0.06-1.7 0.159 0.431 6.59 2.382 12.763 5.508 18.176 3.386-1.474 5.755-4.844 5.755-8.771 1e-3 -5.283-4.281-9.564-9.563-9.564z"/>
<path d="m280.93 400.58s10.608 1.549 20.569 1.549 20.569-1.549 20.569-1.549h2e-3c2.117-12.171 5.756-21.96 11.38-32.518l-31.951-5.123-31.952 5.123c5.625 10.558 9.263 20.347 11.38 32.518h3e-3z"/>
<path d="m340.11 362.32c0-2.488-2.017-4.506-4.506-4.506h-68.211c-2.488 0-4.506 2.018-4.506 4.506v1.233c0 2.488 2.018 4.506 4.506 4.506h68.211c2.489 0 4.506-2.018 4.506-4.506v-1.233z"/>
<path d="m446.64 558.22c-33.597-3.389-69.407-14.212-87.139-30.263-19.444-17.601-34.405-19.781-58.004-19.781s-38.56 2.181-58.005 19.781c-17.731 16.051-53.541 26.874-87.138 30.263l-2.942 2.899h296.17l-2.942-2.899z"/>
<path d="m325.1 507.42c0-1.561-1.266-2.826-2.826-2.826h-41.545c-1.561 0-2.826 1.266-2.826 2.826 0 1.561 1.265 2.827 2.826 2.827h41.545c1.56 0 2.826-1.266 2.826-2.827z"/>
<path d="m325.1 474.92c0 1.561-1.266 2.826-2.826 2.826h-41.545c-1.561 0-2.826-1.266-2.826-2.826 0-1.561 1.265-2.826 2.826-2.826h41.545c1.56 0 2.826 1.266 2.826 2.826z"/>
<path d="m329.51 500.18c0-2.439-1.977-4.416-4.416-4.416h-47.197c-2.439 0-4.416 1.977-4.416 4.416s1.977 4.416 4.416 4.416h47.197c2.439 0 4.416-1.976 4.416-4.416z"/>
<path d="m329.51 482.16c0 2.439-1.977 4.416-4.416 4.416h-47.197c-2.439 0-4.416-1.977-4.416-4.416s1.977-4.416 4.416-4.416h47.197c2.439 0 4.416 1.976 4.416 4.416z"/>
<path d="m336.58 491.08c0-2.489-2.017-4.507-4.506-4.507h-61.146c-2.488 0-4.506 2.018-4.506 4.507v0.172c0 2.488 2.018 4.506 4.506 4.506h61.146c2.489 0 4.506-2.018 4.506-4.506v-0.172z"/>
<path d="m429.78 542.48c-8.754 0-16.184 5.18-18.957 12.402-1.357-3.605-3.845-6.03-6.699-6.03-2.855 0-5.345 2.425-6.701 6.029-2.773-7.222-10.202-12.401-18.957-12.401-8.754 0-16.184 5.18-18.957 12.402-1.357-3.605-3.845-6.03-6.699-6.03-2.855 0-5.345 2.425-6.701 6.029-2.772-7.222-10.201-12.401-18.957-12.401-8.755 0-16.184 5.18-18.957 12.402-1.356-3.605-3.846-6.03-6.7-6.03s-5.343 2.425-6.7 6.03c-2.773-7.223-10.203-12.402-18.957-12.402s-16.184 5.18-18.957 12.402c-1.356-3.605-3.846-6.03-6.7-6.03s-5.343 2.425-6.7 6.03c-2.773-7.223-10.202-12.402-18.957-12.402-8.754 0-16.184 5.18-18.957 12.402-1.357-3.605-3.846-6.03-6.7-6.03s-5.344 2.425-6.7 6.03c-2.773-7.223-10.203-12.402-18.957-12.402-11.121 0-20.136 8.343-20.136 18.635h296.84c-1e-3 -10.292-9.016-18.635-20.137-18.635z"/>
<path d="m449.92 561.12h-296.84c-5.856 0-13.353 10.774-13.353 27.73h323.55c0-16.956-7.498-27.73-13.353-27.73z"/>
</g>
</g>
<g>
<path d="m1.5 1.5v458.87c0 166.31 134.31 301.13 300 301.13 165.69 0 300-134.82 300-301.13v-458.87h-600z" fill="url(#a)"/>
<path d="m1.5 1.5v458.87c0 166.31 134.31 301.13 300 301.13 165.69 0 300-134.82 300-301.13v-458.87h-600z" fill="none" stroke="#000" stroke-width="3"/>
</g>
</svg>

<?xml version="1.0" encoding="UTF-8" standalone="no"?>
<svg
   xmlns:dc="http://purl.org/dc/elements/1.1/"
   xmlns:cc="http://creativecommons.org/ns#"
   xmlns:rdf="http://www.w3.org/1999/02/22-rdf-syntax-ns#"
   xmlns:svg="http://www.w3.org/2000/svg"
   xmlns="http://www.w3.org/2000/svg"
   xmlns:xlink="http://www.w3.org/1999/xlink"
   xmlns:sodipodi="http://sodipodi.sourceforge.net/DTD/sodipodi-0.dtd"
   xmlns:inkscape="http://www.inkscape.org/namespaces/inkscape"
   height="763"
   width="603"
   version="1.0"
   id="svg20"
   sodipodi:version="0.32"
   inkscape:version="0.46"
   sodipodi:docname="Coppet-coat_of_arms.svg"
   sodipodi:docbase="C:\Documents and Settings\Steve\Bureau\Blason Villages Suisse pour Wikipédia (par Delta-9)"
   inkscape:output_extension="org.inkscape.output.svg.inkscape">
  <metadata
     id="metadata31">
    <rdf:RDF>
      <cc:Work
         rdf:about="">
        <dc:format>image/svg+xml</dc:format>
        <dc:type
           rdf:resource="http://purl.org/dc/dcmitype/StillImage" />
        <dc:date>07-AUG-2006</dc:date>
        <dc:creator>
          <cc:Agent>
            <dc:title>Jérôme BLUM (wagner51)</dc:title>
          </cc:Agent>
        </dc:creator>
        <cc:license
           rdf:resource="http://creativecommons.org/licenses/GPL/2.0/" />
        <dc:coverage />
        <dc:description>Gabarit pour le Projet:Blasons de WIkipédia</dc:description>
        <dc:subject>
          <rdf:Bag>
            <rdf:li>blason suisse modèle gabarit projet blasons</rdf:li>
          </rdf:Bag>
        </dc:subject>
        <dc:language>fr</dc:language>
        <dc:title>Gabrit d'un blason suisse</dc:title>
      </cc:Work>
      <cc:License
         rdf:about="http://creativecommons.org/licenses/GPL/2.0/">
        <cc:permits
           rdf:resource="http://web.resource.org/cc/Reproduction" />
        <cc:permits
           rdf:resource="http://web.resource.org/cc/Distribution" />
        <cc:requires
           rdf:resource="http://web.resource.org/cc/Notice" />
        <cc:permits
           rdf:resource="http://web.resource.org/cc/DerivativeWorks" />
        <cc:requires
           rdf:resource="http://web.resource.org/cc/ShareAlike" />
        <cc:requires
           rdf:resource="http://web.resource.org/cc/SourceCode" />
      </cc:License>
    </rdf:RDF>
  </metadata>
  <defs
     id="defs29"><inkscape:perspective
   sodipodi:type="inkscape:persp3d"
   inkscape:vp_x="0 : 381.5 : 1"
   inkscape:vp_y="0 : 1000 : 0"
   inkscape:vp_z="603 : 381.5 : 1"
   inkscape:persp3d-origin="301.5 : 254.33333 : 1"
   id="perspective28" />
<linearGradient
   id="linearGradient2893">
  <stop
     style="stop-color:#ffffff;stop-opacity:0.3137255;"
     offset="0"
     id="stop2895" />
  <stop
     id="stop2897"
     offset="0.19"
     style="stop-color:#ffffff;stop-opacity:0.25098041;" />
  <stop
     style="stop-color:#6b6b6b;stop-opacity:0.1254902;"
     offset="0.60000002"
     id="stop2901" />
  <stop
     style="stop-color:#000000;stop-opacity:0.1254902;"
     offset="1"
     id="stop2899" />
</linearGradient>
<linearGradient
   id="linearGradient2955">
  <stop
     style="stop-color:white;stop-opacity:0;"
     offset="0"
     id="stop2965" />
  <stop
     style="stop-color:black;stop-opacity:0.64583331;"
     offset="1"
     id="stop2959" />
</linearGradient>
<radialGradient
   inkscape:collect="always"
   xlink:href="#linearGradient2893"
   id="radialGradient3236"
   gradientUnits="userSpaceOnUse"
   gradientTransform="matrix(1.215027,1.531577e-24,1.464684e-23,1.266667,-839.1924,-490.4894)"
   cx="858.04236"
   cy="579.93323"
   fx="858.04236"
   fy="579.93323"
   r="300" />
<inkscape:perspective
   id="perspective2648"
   inkscape:persp3d-origin="297.63751 : 280.63 : 1"
   inkscape:vp_z="595.27502 : 420.94501 : 1"
   inkscape:vp_y="0 : 1000 : 0"
   inkscape:vp_x="0 : 420.94501 : 1"
   sodipodi:type="inkscape:persp3d" />

	
	
	
	
	
	
	

	

		
		
	
		
		
		
		
		
	
		
		
	
		
		
			
		
			
		
		
	
		
		
			
	</defs>
  <sodipodi:namedview
     inkscape:window-height="891"
     inkscape:window-width="1184"
     inkscape:pageshadow="2"
     inkscape:pageopacity="0.0"
     guidetolerance="10.0"
     gridtolerance="10.0"
     objecttolerance="10.0"
     borderopacity="1.0"
     bordercolor="#666666"
     pagecolor="#ffffff"
     id="base"
     inkscape:zoom="0.80082771"
     inkscape:cx="336.96179"
     inkscape:cy="341.82051"
     inkscape:window-x="41"
     inkscape:window-y="41"
     inkscape:current-layer="layer2"
     showgrid="false"
     showguides="true"
     inkscape:guide-bbox="true">
    <sodipodi:guide
       orientation="horizontal"
       position="761.5"
       id="guide1885" />
    <sodipodi:guide
       orientation="vertical"
       position="1.5"
       id="guide1887" />
    <sodipodi:guide
       orientation="horizontal"
       position="1.5"
       id="guide1889" />
    <sodipodi:guide
       orientation="vertical"
       position="601.5"
       id="guide1891" />
    <sodipodi:guide
       orientation="vertical"
       position="301.50081"
       id="guide1893" />
  </sodipodi:namedview>
  <desc
     id="desc22">Coat of Arms of Canton of Freiburg (Fribourg)</desc>
  <g
     inkscape:groupmode="layer"
     id="layer1"
     inkscape:label="Fond écu"
     style="opacity:1"
     sodipodi:insensitive="true">
    <path
       d="M 1.5,1.5 L 1.5,460.369 C 1.5,626.68 135.814,761.5 301.5,761.5 C 467.186,761.5 601.5,626.68 601.5,460.369 L 601.5,1.5 L 1.5,1.5 z"
       id="path2655"
       style="opacity:1;fill:#2b5df2" />
  </g>
  <g
     inkscape:groupmode="layer"
     id="layer2"
     inkscape:label="Meubles"
     style="opacity:1"
     sodipodi:insensitive="true">
    <g
       id="g2748">
      <path
         id="path2599"
         d="M 513.68,176.395 C 513.489,174.825 511.493,171.824 509.109,171.824 C 506.725,171.824 497.981,171.824 497.981,171.824 L 497.981,156.457 C 497.981,156.457 500.63,156.457 503.231,156.457 C 505.832,156.457 506.943,154.319 506.381,153.308 C 498.962,139.956 488.323,133.208 483.845,130.82 C 482.517,130.112 481.157,129.787 479.568,129.787 L 123.431,129.787 C 121.842,129.787 120.481,130.112 119.154,130.82 C 114.676,133.209 104.037,139.957 96.618,153.308 C 96.056,154.32 97.167003,156.457 99.768003,156.457 C 102.368,156.457 105.018,156.457 105.018,156.457 L 105.018,171.824 C 105.018,171.824 96.274,171.824 93.89,171.824 C 91.506,171.824 89.51,174.825 89.319,176.395 C 88.965,179.298 88.769,182.362 88.769,185.601 C 88.769,227.992 171.571,333.308 301.5,333.308 C 431.429,333.308 514.231,227.993 514.231,185.601 C 514.231,182.363 514.035,179.299 513.68,176.395 z"
         style="fill:#ffffff;stroke:#000000;stroke-width:3;stroke-linecap:round;stroke-linejoin:round" />
      <rect
         id="rect2601"
         height="15.367"
         width="392.96301"
         y="156.457"
         x="105.01701"
         style="fill:#ffffff;stroke:#000000;stroke-width:3;stroke-linecap:round;stroke-linejoin:round" />
      <path
         style="fill:#ffffff;stroke:#000000;stroke-width:3;stroke-linecap:round;stroke-linejoin:round"
         d="M 389.259,314.364 C 380.517,314.364 368.053,317.546 364.585,323.737 L 364.579,323.742 C 361.282,318.021 356.295,314.365 350.703,314.365 C 344.665,314.365 339.328,318.619 336.064,325.139 C 333.665,320.17 330.093,317.014 326.101,317.014 C 322.107,317.014 318.535,320.17 316.135,325.139 C 312.874,318.619 307.535,314.364 301.498,314.364 C 295.461,314.364 290.123,318.618 286.861,325.138 C 284.461,320.169 280.889,317.013 276.896,317.013 C 272.904,317.013 269.332,320.169 266.932,325.138 C 263.67,318.618 258.332,314.364 252.295,314.364 C 246.7,314.364 241.712,318.022 238.413,323.747 L 238.406,323.734 C 234.938,317.544 222.48,314.364 213.738,314.364 C 204.758,314.364 230.158,344.833 261.822,355.851 C 272.563,359.588 286.011,359.934 301.498,359.934 C 316.984,359.934 330.432,359.588 341.175,355.851 C 372.839,344.833 398.238,314.364 389.259,314.364 z"
         id="path2603" />
      <path
         id="path2607"
         d="M 338.405,424.21 C 333.359,407.372 318.744,395.198 301.499,395.198 C 284.252,395.198 269.633,407.377 264.589,424.22 L 264.589,449.486 L 338.405,449.486 L 338.405,424.21 z"
         style="fill:#ffffff;stroke:#000000;stroke-width:3;stroke-linecap:round;stroke-linejoin:round" />
      <ellipse
         transform="translate(-3.8e-2,-4.5e-2)"
         id="ellipse2609"
         ry="13.16"
         rx="5.9169998"
         cy="441.23001"
         cx="281.155"
         sodipodi:cx="281.155"
         sodipodi:cy="441.23001"
         sodipodi:rx="5.9169998"
         sodipodi:ry="13.16"
         style="fill:#ffffff;stroke:#000000;stroke-width:3;stroke-linecap:round;stroke-linejoin:round" />
      <ellipse
         transform="translate(-3.8e-2,-4.5e-2)"
         id="ellipse2611"
         ry="13.16"
         rx="5.9169998"
         cy="441.23001"
         cx="321.91901"
         sodipodi:cx="321.91901"
         sodipodi:cy="441.23001"
         sodipodi:rx="5.9169998"
         sodipodi:ry="13.16"
         style="fill:#ffffff;stroke:#000000;stroke-width:3;stroke-linecap:round;stroke-linejoin:round" />
      <path
         id="path2613"
         d="M 261.733,423.715 C 260.305,427.937 259.531,432.461 259.531,437.165 C 259.531,460.344 278.321,479.133 301.499,479.133 C 324.678,479.133 343.467,460.344 343.467,437.165 C 343.467,432.461 342.693,427.936 341.265,423.713 C 336.371,423.713 325.59,429.88 321.881,441.185 C 318.172,429.88 303.195,423.716 301.499,423.716 C 299.803,423.716 284.826,429.88 281.117,441.185 C 277.408,429.88 266.627,423.715 261.733,423.715 z"
         style="fill:#ffffff;stroke:#000000;stroke-width:3;stroke-linecap:round;stroke-linejoin:round" />
      <path
         id="path2615"
         d="M 301.499,439.783 C 296.217,439.783 291.935,444.064 291.935,449.346 C 291.935,454.628 296.217,458.909 301.499,458.909 C 306.781,458.909 311.062,454.628 311.062,449.346 C 311.062,444.064 306.781,439.783 301.499,439.783 z M 341.671,439.783 C 336.39,439.783 332.108,444.064 332.108,449.346 C 332.108,453.273 334.476,456.641 337.859,458.115 C 340.985,452.703 342.935,446.531 343.366,439.941 C 342.815,439.842 342.251,439.783 341.671,439.783 z M 261.333,439.783 C 260.752,439.783 260.186,439.843 259.633,439.942 C 260.064,446.532 262.015,452.705 265.141,458.118 C 268.527,456.644 270.896,453.274 270.896,449.347 C 270.897,444.064 266.615,439.783 261.333,439.783 z"
         style="fill:#ffffff;stroke:#000000;stroke-width:3;stroke-linecap:round;stroke-linejoin:round" />
      <path
         id="path2619"
         d="M 280.93,400.579 C 280.93,400.579 291.538,402.128 301.499,402.128 C 311.46,402.128 322.068,400.579 322.068,400.579 L 322.07,400.579 C 324.187,388.408 327.826,378.619 333.45,368.061 L 301.499,362.938 L 269.547,368.061 C 275.172,378.619 278.81,388.408 280.927,400.579 L 280.93,400.579 z"
         style="fill:#ffffff;stroke:#000000;stroke-width:3;stroke-linecap:round;stroke-linejoin:round" />
      <path
         id="path2621"
         d="M 340.11,362.321 C 340.11,359.833 338.093,357.815 335.604,357.815 L 267.393,357.815 C 264.905,357.815 262.887,359.833 262.887,362.321 L 262.887,363.554 C 262.887,366.042 264.905,368.06 267.393,368.06 L 335.604,368.06 C 338.093,368.06 340.11,366.042 340.11,363.554 L 340.11,362.321 z"
         style="fill:#ffffff;stroke:#000000;stroke-width:3;stroke-linecap:round;stroke-linejoin:round" />
      <path
         style="fill:#ffffff;stroke:#000000;stroke-width:3;stroke-linecap:round;stroke-linejoin:round"
         d="M 446.642,558.216 C 413.045,554.827 377.235,544.004 359.503,527.953 C 340.059,510.352 325.098,508.172 301.499,508.172 C 277.9,508.172 262.939,510.353 243.494,527.953 C 225.763,544.004 189.953,554.827 156.356,558.216 L 153.414,561.115 L 449.584,561.115 L 446.642,558.216 z"
         id="path2623" />
      <path
         id="path2627"
         d="M 325.098,507.42 C 325.098,505.859 323.832,504.594 322.272,504.594 L 280.727,504.594 C 279.166,504.594 277.901,505.86 277.901,507.42 L 277.901,507.42 C 277.901,508.981 279.166,510.247 280.727,510.247 L 322.272,510.247 C 323.832,510.247 325.098,508.981 325.098,507.42 L 325.098,507.42 z"
         style="fill:#ffffff;stroke:#000000;stroke-width:3;stroke-linecap:round;stroke-linejoin:round" />
      <path
         id="path2629"
         d="M 325.098,474.919 C 325.098,476.48 323.832,477.745 322.272,477.745 L 280.727,477.745 C 279.166,477.745 277.901,476.479 277.901,474.919 L 277.901,474.919 C 277.901,473.358 279.166,472.093 280.727,472.093 L 322.272,472.093 C 323.832,472.093 325.098,473.359 325.098,474.919 L 325.098,474.919 z"
         style="fill:#ffffff;stroke:#000000;stroke-width:3;stroke-linecap:round;stroke-linejoin:round" />
      <path
         id="path2631"
         d="M 329.514,500.178 C 329.514,497.739 327.537,495.762 325.098,495.762 L 277.901,495.762 C 275.462,495.762 273.485,497.739 273.485,500.178 L 273.485,500.178 C 273.485,502.617 275.462,504.594 277.901,504.594 L 325.098,504.594 C 327.537,504.594 329.514,502.618 329.514,500.178 L 329.514,500.178 z"
         style="fill:#ffffff;stroke:#000000;stroke-width:3;stroke-linecap:round;stroke-linejoin:round" />
      <path
         id="path2633"
         d="M 329.514,482.162 C 329.514,484.601 327.537,486.578 325.098,486.578 L 277.901,486.578 C 275.462,486.578 273.485,484.601 273.485,482.162 L 273.485,482.162 C 273.485,479.723 275.462,477.746 277.901,477.746 L 325.098,477.746 C 327.537,477.746 329.514,479.722 329.514,482.162 L 329.514,482.162 z"
         style="fill:#ffffff;stroke:#000000;stroke-width:3;stroke-linecap:round;stroke-linejoin:round" />
      <path
         id="path2635"
         d="M 336.578,491.084 C 336.578,488.595 334.561,486.577 332.072,486.577 L 270.926,486.577 C 268.438,486.577 266.42,488.595 266.42,491.084 L 266.42,491.256 C 266.42,493.744 268.438,495.762 270.926,495.762 L 332.072,495.762 C 334.561,495.762 336.578,493.744 336.578,491.256 L 336.578,491.084 z"
         style="fill:#ffffff;stroke:#000000;stroke-width:3;stroke-linecap:round;stroke-linejoin:round" />
      <path
         id="path2639"
         d="M 429.785,542.481 C 421.031,542.481 413.601,547.661 410.828,554.883 C 409.471,551.278 406.983,548.853 404.129,548.853 C 401.274,548.853 398.784,551.278 397.428,554.882 C 394.655,547.66 387.226,542.481 378.471,542.481 C 369.717,542.481 362.287,547.661 359.514,554.883 C 358.157,551.278 355.669,548.853 352.815,548.853 C 349.96,548.853 347.47,551.278 346.114,554.882 C 343.342,547.66 335.913,542.481 327.157,542.481 C 318.402,542.481 310.973,547.661 308.2,554.883 C 306.844,551.278 304.354,548.853 301.5,548.853 C 298.646,548.853 296.157,551.278 294.8,554.883 C 292.027,547.66 284.597,542.481 275.843,542.481 C 267.089,542.481 259.659,547.661 256.886,554.883 C 255.53,551.278 253.04,548.853 250.186,548.853 C 247.332,548.853 244.843,551.278 243.486,554.883 C 240.713,547.66 233.284,542.481 224.529,542.481 C 215.775,542.481 208.345,547.661 205.572,554.883 C 204.215,551.278 201.726,548.853 198.872,548.853 C 196.018,548.853 193.528,551.278 192.172,554.883 C 189.399,547.66 181.969,542.481 173.215,542.481 C 162.094,542.481 153.079,550.824 153.079,561.116 L 449.922,561.116 C 449.921,550.824 440.906,542.481 429.785,542.481 z"
         style="fill:#ffffff;stroke:#000000;stroke-width:3;stroke-linecap:round;stroke-linejoin:round" />
      <path
         id="path2641"
         d="M 449.921,561.116 L 153.078,561.116 C 147.222,561.116 139.725,571.89 139.725,588.846 L 463.274,588.846 C 463.274,571.89 455.776,561.116 449.921,561.116 z"
         style="fill:#ffffff;stroke:#000000;stroke-width:3;stroke-linecap:round;stroke-linejoin:round" />
    </g>
  </g>
  <g
     inkscape:groupmode="layer"
     id="layer3"
     inkscape:label="Reflet final"
     style="display:inline"
     sodipodi:insensitive="true">
    <path
       style="fill:url(#radialGradient3236);fill-opacity:1"
       d="M 1.5,1.5 L 1.5,460.3679 C 1.5,626.67854 135.81454,761.5 301.49993,761.5 C 467.1854,761.5 601.5,626.67854 601.5,460.3679 L 601.5,1.5 L 1.5,1.5 z "
       id="path2346" />
  </g>
  <g
     inkscape:groupmode="layer"
     id="layer4"
     inkscape:label="Contour final"
     style="display:inline"
     sodipodi:insensitive="true">
    <path
       style="fill:none;fill-opacity:1;stroke:#000000;stroke-width:3;stroke-miterlimit:4;stroke-dasharray:none;stroke-opacity:1"
       d="M 1.5,1.5 L 1.5,460.36794 C 1.5,626.67854 135.81454,761.5 301.49993,761.5 C 467.1854,761.5 601.5,626.67854 601.5,460.36794 L 601.5,1.5 L 1.5,1.5 z "
       id="path3239" />
  </g>
</svg>
